exported-svg/arrow-up.svg

<svg height="24" viewBox="0 0 24 24" width="24" xmlns="http://www.w3.org/2000/svg"><path d="m12 5.70710678-5.14644661 5.14644662c-.19526215.1952621-.51184463.1952621-.70710678 0-.19526215-.1952622-.19526215-.5118446 0-.7071068l5.99999999-5.99999999c.1952622-.19526215.5118446-.19526215.7071068 0l6 5.99999999c.1952621.1952622.1952621.5118446 0 .7071068-.1952622.1952621-.5118446.1952621-.7071068 0l-5.1464466-5.14644662v14.79289322c0 .2761424-.2238576.5-.5.5s-.5-.2238576-.5-.5z"/></svg>

<?xml version="1.0" encoding="UTF-8"?>
<svg width="24px" height="24px" viewBox="0 0 24 24" version="1.1" xmlns="http://www.w3.org/2000/svg" xmlns:xlink="http://www.w3.org/1999/xlink">
    <!-- Generator: Sketch 55.2 (78181) - https://sketchapp.com -->
    <title>arrow-up</title>
    <desc>Created with Sketch.</desc>
    <g id="arrow-up" stroke="none" stroke-width="1" fill="none" fill-rule="evenodd">
        <path d="M12,5.70710678 L6.85355339,10.8535534 C6.65829124,11.0488155 6.34170876,11.0488155 6.14644661,10.8535534 C5.95118446,10.6582912 5.95118446,10.3417088 6.14644661,10.1464466 L12.1464466,4.14644661 C12.3417088,3.95118446 12.6582912,3.95118446 12.8535534,4.14644661 L18.8535534,10.1464466 C19.0488155,10.3417088 19.0488155,10.6582912 18.8535534,10.8535534 C18.6582912,11.0488155 18.3417088,11.0488155 18.1464466,10.8535534 L13,5.70710678 L13,20.5 C13,20.7761424 12.7761424,21 12.5,21 C12.2238576,21 12,20.7761424 12,20.5 L12,5.70710678 Z" id="Combined-Shape" fill="#000000" fill-rule="nonzero"></path>
    </g>
</svg>
